material/.icons/material/dots-horizontal-circle-outline.svg

<svg xmlns="http://www.w3.org/2000/svg" viewBox="0 0 24 24"><path d="M12 2a10 10 0 0110 10 10 10 0 01-10 10A10 10 0 012 12 10 10 0 0112 2m0 2a8 8 0 00-8 8 8 8 0 008 8 8 8 0 008-8 8 8 0 00-8-8m0 6.5a1.5 1.5 0 011.5 1.5 1.5 1.5 0 01-1.5 1.5 1.5 1.5 0 01-1.5-1.5 1.5 1.5 0 011.5-1.5m-4.5 0A1.5 1.5 0 019 12a1.5 1.5 0 01-1.5 1.5A1.5 1.5 0 016 12a1.5 1.5 0 011.5-1.5m9 0A1.5 1.5 0 0118 12a1.5 1.5 0 01-1.5 1.5A1.5 1.5 0 0115 12a1.5 1.5 0 011.5-1.5z"/></svg>

<?xml version="1.0" encoding="UTF-8"?><!DOCTYPE svg PUBLIC "-//W3C//DTD SVG 1.1//EN" "http://www.w3.org/Graphics/SVG/1.1/DTD/svg11.dtd"><svg xmlns="http://www.w3.org/2000/svg" xmlns:xlink="http://www.w3.org/1999/xlink" version="1.1" id="mdi-dots-horizontal-circle-outline" width="24" height="24" viewBox="0 0 24 24"><path d="M12,2A10,10 0 0,1 22,12A10,10 0 0,1 12,22A10,10 0 0,1 2,12A10,10 0 0,1 12,2M12,4A8,8 0 0,0 4,12A8,8 0 0,0 12,20A8,8 0 0,0 20,12A8,8 0 0,0 12,4M12,10.5A1.5,1.5 0 0,1 13.5,12A1.5,1.5 0 0,1 12,13.5A1.5,1.5 0 0,1 10.5,12A1.5,1.5 0 0,1 12,10.5M7.5,10.5A1.5,1.5 0 0,1 9,12A1.5,1.5 0 0,1 7.5,13.5A1.5,1.5 0 0,1 6,12A1.5,1.5 0 0,1 7.5,10.5M16.5,10.5A1.5,1.5 0 0,1 18,12A1.5,1.5 0 0,1 16.5,13.5A1.5,1.5 0 0,1 15,12A1.5,1.5 0 0,1 16.5,10.5Z" /></svg>
